icons/svg/shopping/candles.svg

<?xml version="1.0" encoding="UTF-8" standalone="no"?>
<!-- Created with Inkscape (http://www.inkscape.org/) -->

<svg
   xmlns:dc="http://purl.org/dc/elements/1.1/"
   xmlns:cc="http://creativecommons.org/ns#"
   xmlns:rdf="http://www.w3.org/1999/02/22-rdf-syntax-ns#"
   xmlns:svg="http://www.w3.org/2000/svg"
   xmlns="http://www.w3.org/2000/svg"
   xmlns:sodipodi="http://sodipodi.sourceforge.net/DTD/sodipodi-0.dtd"
   xmlns:inkscape="http://www.inkscape.org/namespaces/inkscape"
   version="1.0"
   width="580"
   height="580"
   id="svg2"
   sodipodi:version="0.32"
   inkscape:version="0.91 r"
   sodipodi:docname="candles.svg"
   inkscape:output_extension="org.inkscape.output.svg.inkscape">
  <metadata
     id="metadata2975">
    <rdf:RDF>
      <cc:Work
         rdf:about="">
        <dc:format>image/svg+xml</dc:format>
        <dc:type
           rdf:resource="http://purl.org/dc/dcmitype/StillImage" />
        <cc:license
           rdf:resource="http://web.resource.org/cc/PublicDomain" />
        <dc:language>en</dc:language>
        <dc:title></dc:title>
      </cc:Work>
    </rdf:RDF>
  </metadata>
  <sodipodi:namedview
     inkscape:window-height="1004"
     inkscape:window-width="1920"
     inkscape:pageshadow="2"
     inkscape:pageopacity="0.0"
     guidetolerance="10.0"
     gridtolerance="10.0"
     objecttolerance="10.0"
     borderopacity="1.0"
     bordercolor="#666666"
     pagecolor="#ffffff"
     id="base"
     inkscape:zoom="0.92167712"
     inkscape:cx="374.54438"
     inkscape:cy="268.91564"
     inkscape:window-x="1680"
     inkscape:window-y="0"
     inkscape:current-layer="svg2"
     showgrid="false"
     inkscape:window-maximized="1" />
  <defs
     id="defs4">
    <inkscape:perspective
       sodipodi:type="inkscape:persp3d"
       inkscape:vp_x="0 : 290 : 1"
       inkscape:vp_y="0 : 1000 : 0"
       inkscape:vp_z="580 : 290 : 1"
       inkscape:persp3d-origin="290 : 193.33333 : 1"
       id="perspective2441" />
    <inkscape:perspective
       id="perspective2466"
       inkscape:persp3d-origin="372.04724 : 350.78739 : 1"
       inkscape:vp_z="744.09448 : 526.18109 : 1"
       inkscape:vp_y="0 : 1000 : 0"
       inkscape:vp_x="0 : 526.18109 : 1"
       sodipodi:type="inkscape:persp3d" />
    <inkscape:perspective
       id="perspective3333"
       inkscape:persp3d-origin="372.04724 : 350.78739 : 1"
       inkscape:vp_z="744.09448 : 526.18109 : 1"
       inkscape:vp_y="0 : 1000 : 0"
       inkscape:vp_x="0 : 526.18109 : 1"
       sodipodi:type="inkscape:persp3d" />
    <inkscape:perspective
       id="perspective3401"
       inkscape:persp3d-origin="372.04724 : 350.78739 : 1"
       inkscape:vp_z="744.09448 : 526.18109 : 1"
       inkscape:vp_y="0 : 1000 : 0"
       inkscape:vp_x="0 : 526.18109 : 1"
       sodipodi:type="inkscape:persp3d" />
    <inkscape:perspective
       id="perspective3464"
       inkscape:persp3d-origin="372.04724 : 350.78739 : 1"
       inkscape:vp_z="744.09448 : 526.18109 : 1"
       inkscape:vp_y="0 : 1000 : 0"
       inkscape:vp_x="0 : 526.18109 : 1"
       sodipodi:type="inkscape:persp3d" />
  </defs>
  <g
     id="g1327">
    <path
       d="M 66.275,1.768 C 24.94,1.768 1.704,23.139 1.704,66.804 L 1.704,516.927 C 1.704,557.771 22.599,579.156 63.896,579.156 L 515.92,579.156 C 557.227,579.156 578.149,558.841 578.149,516.927 L 578.149,66.804 C 578.149,24.203 557.227,1.768 514.628,1.768 C 514.624,1.768 66.133,1.625 66.275,1.768 z "
       style="fill:#111;stroke:#eee;stroke-width:3.40799999"
       id="path1329" />
  </g>
  <path
     inkscape:connector-curvature="0"
     d="m 291.22264,29.232604 c 0,32.843485 -28.97955,50.231219 -28.97955,77.278786 0,21.25167 17.38772,38.63939 38.63939,38.63939 -11.59181,0 -19.31969,-9.65984 -19.31969,-19.31969 0,-23.18364 19.31969,-15.45576 19.31969,-38.639391 0,0 19.31971,7.848626 19.31971,27.168311 0,13.5238 -5.84876,27.01744 -15.09352,30.18704 19.26898,-2.1356 34.41321,-18.22157 34.41321,-38.03566 0,-48.299239 -48.29924,-77.278786 -48.29924,-77.278786 z m 38.63939,135.237886 c -7.72787,0 -34.6547,7.96937 -59.77031,15.69725 -27.04758,7.72787 -46.48802,32.72273 -46.48802,59.77031 l 0,1.81122 c 0,11.59181 7.72788,19.31969 19.3197,19.31969 l 0,154.55757 96.59848,0 0,-175.68848 c 0,-19.31969 19.3197,-29.1003 19.3197,-46.48802 0,-15.45576 -13.5238,-28.97954 -28.97955,-28.97954 z M 223.6037,443.07024 c 0,21.2643 12.63556,36.72373 23.54589,46.488 -17.69955,9.24149 -42.86558,26.36541 -42.86558,50.11047 l 173.87726,0 c 0,-24.99486 -25.16613,-41.28416 -42.86558,-50.11047 10.91022,-9.76427 23.54589,-25.2237 23.54589,-46.488 z"
     id="path4"
     style="fill:#ffffff;fill-opacity:1;stroke:none"
     sodipodi:nodetypes="cscscscscscsscccsssccccccc" />
</svg>

<svg width="580" height="580" viewBox="0 0 580 580" fill="none" xmlns="http://www.w3.org/2000/svg">
<g clip-path="url(#clip0)">
<path d="M66.2751 1.76766C24.9401 1.76766 1.7041 23.1387 1.7041 66.8037V516.927C1.7041 557.771 22.5991 579.156 63.8961 579.156H515.92C557.227 579.156 578.149 558.841 578.149 516.927V66.8037C578.149 24.2027 557.227 1.76766 514.628 1.76766C514.624 1.76766 66.1331 1.62466 66.2751 1.76766Z" fill="#111111" stroke="#EEEEEE" stroke-width="3.408"/>
<path d="M291.223 29.2324C291.223 62.0759 262.243 79.4636 262.243 106.511C262.243 127.763 279.631 145.151 300.883 145.151C289.291 145.151 281.563 135.491 281.563 125.831C281.563 102.647 300.883 110.375 300.883 87.1915C300.883 87.1915 320.202 95.0401 320.202 114.36C320.202 127.884 314.354 141.377 305.109 144.547C324.378 142.411 339.522 126.325 339.522 106.511C339.522 58.212 291.223 29.2324 291.223 29.2324V29.2324ZM329.862 164.47C322.134 164.47 295.207 172.44 270.092 180.168C243.044 187.895 223.604 212.89 223.604 239.938V241.749C223.604 253.341 231.332 261.069 242.924 261.069V415.626H339.522V239.938C339.522 220.618 358.842 210.838 358.842 193.45C358.842 177.994 345.318 164.47 329.862 164.47V164.47ZM223.604 443.07C223.604 464.334 236.239 479.794 247.15 489.558C229.45 498.8 204.284 515.923 204.284 539.669H378.161C378.161 514.674 352.995 498.384 335.296 489.558C346.206 479.794 358.842 464.334 358.842 443.07H223.604Z" fill="white"/>
</g>
<defs>
<clipPath id="clip0">
<path d="M0 0H580V580H0V0Z" fill="white"/>
</clipPath>
</defs>
</svg>
